!!!COM: Webern, Anton (Friedrich Wilhelm von)
!!!OTL: Fünf Stücke (Five Pieces) for Orchestra, op. 10
**kern	**kern	**kern	**kern	**kern	**kern	**kern	**kern	**kern	**kern	**kern	**kern	**dynam
*grp:A	*grp:A	*grp:A	*grp:A	*grp:A	*grp:A	*grp:A	*grp:A	*grp:A	*grp:A	*grp:B	*grp:A	*grp:A
*part10	*part9	*part8	*part7	*part6	*part6	*part5	*part5	*part4	*part3	*part2	*part1	*part1
*staff12	*staff11	*staff10	*staff9	*staff8	*staff7	*staff6	*staff5	*staff4	*staff3	*staff2	*staff1	*S
*I"Violoncello	*I"Viola	*I"Violin	*I"Glockenspiel	*I"Harp	*	*I"Celesta	*	*I"Trombone	*I"Trumpet in Bb	*I"Clarinet in Bb	*I"Flute	*
*I'Vc.	*I'Vla.	*I'Vln.	*I'Glock.	*I'Hp.	*	*I'Cel.	*	*I'Tbn.	*I'Tpt.	*I'Cl.	*I'Fl.	*
*clefF4	*clefC3	*clefG2	*clefG2	*clefF4	*clefG2	*clefF4	*clefG2	*clefF4	*clefG2	*clefG2	*clefG2	*
*k[]	*k[]	*k[]	*k[]	*k[]	*k[]	*k[]	*k[]	*k[]	*k[]	*k[]	*k[]	*
*	*	*	*	*	*	*	*	*	*	*	*	*
*M2/4	*M2/4	*M2/4	*M2/4	*M2/4	*M2/4	*M2/4	*M2/4	*M2/4	*M2/4	*M2/4	*M2/4	*
8r	8r	8r	8r	8r	8b'	8r	8r	8r	8b'	8r	8r	.
=1	=1	=1	=1	=1	=1	=1	=1	=1	=1	=1	=1	=1
2r	8Cn 8Fn	2r	2r	4cn~	4r	2r	4an~	2r	2r	2r	4r	.
.	8r	.	.	.	.	.	.	.	.	.	.	.
.	4r	.	.	4r	12r	.	4r	.	.	.	12r	.
.	.	.	.	.	6bn	.	.	.	.	.	6bn	.
=2	=2	=2	=2	=2	=2	=2	=2	=2	=2	=2	=2	=2
2r	2r	2r	6eeee-X	2r	2r	2r	2r	2r	2r	2r	2r	.
.	.	.	6gggn	.	.	.	.	.	.	.	.	.
.	.	.	6dddn	.	.	.	.	.	.	.	.	.
=3	=3	=3	=3	=3	=3	=3	=3	=3	=3	=3	=3	=3
2r	2r	2r	2r	2r	2r	2g#X^t	2r	2r	2r	4r	2r	.
.	.	.	.	.	.	.	.	.	.	8r	.	.
.	.	.	.	.	.	.	.	.	.	([8ffn	.	.
=4	=4	=4	=4	=4	=4	=4	=4	=4	=4	=4	=4	=4
2r	4r	4r	2r	2r	4r	2g#X	2r	2r	2r	8ff]	4r	.
.	.	.	.	.	.	.	.	.	.	[4.aan	.	.
.	8r	8r	.	.	8r	.	.	.	.	.	12r	.
.	.	.	.	.	.	.	.	.	.	.	[6cc#X	<
.	[8dn	[8Bn	.	.	8Bn 8dn	.	.	.	.	.	.	.
=5	=5	=5	=5	=5	=5	=5	=5	=5	=5	=5	=5	=5
2r	12d]	12B]	2r	2r	6r	2g#X	2r	2r	2r	4aa]	12cc#	.
.	12r	12r	.	.	.	.	.	.	.	.	12r	.
.	6.e-X	6.cn	.	.	6Bn 6dn	.	.	.	.	.	6.b-X	.
.	.	.	.	.	.	.	.	.	.	8bbL	.	.
.	.	.	.	.	6r	.	.	.	.	.	.	.
.	.	.	.	.	.	.	.	.	.	8eeJ)	.	.
.	12r	12r	.	.	.	.	.	.	.	.	12r	.
*clefC4	*	*	*	*	*	*	*	*	*	*	*	*
=6	=6	=6	=6	=6	=6	=6	=6	=6	=6	=6	=6	=6
16r	4d-X	4B-X	2r	2r	4Bn 4dn	2g#X	2r	4r	4r	8r	2r	.
8ccn	.	.	.	.	.	.	.	.	.	.	.	.
.	.	.	.	.	.	.	.	.	.	(4bb	.	.
16r	.	.	.	.	.	.	.	.	.	.	.	.
16r	4r	4r	.	.	4r	.	.	12r	12r	.	.	.
8ddn	.	.	.	.	.	.	.	.	.	.	.	.
.	.	.	.	.	.	.	.	(6Gn	(6e-X	.	.	.
.	.	.	.	.	.	.	.	.	.	8ffn)	.	.
16r	.	.	.	.	.	.	.	.	.	.	.	.
=7	=7	=7	=7	=7	=7	=7	=7	=7	=7	=7	=7	=7
!!pagebreak:original
8r	2r	4r	2r	2r	2r	2g#X	2r	6Fn	6g-X	2r	2r	.
4cc#X	.	.	.	.	.	.	.	.	.	.	.	.
.	.	.	.	.	.	.	.	6F#X	12fn~L	.	.	.
.	.	[4bbb-X	.	.	.	.	.	.	12gn~J)	.	.	.
.	.	.	.	.	.	.	.	6r	6r	.	.	.
8B	.	.	.	.	.	.	.	.	.	.	.	.
=8	=8	=8	=8	=8	=8	=8	=8	=8	=8	=8	=8	=8
(4.an	2r	12bbb-L]	2r	2r	2r	4g#X	2r	2r	2r	2r	8r	.
.	.	12ddn	.	.	.	.	.	.	.	.	.	.
.	.	.	.	.	.	.	.	.	.	.	8g#X	ppp
.	.	12ccc#XJ	.	.	.	.	.	.	.	.	.	.
.	.	6fffn	.	.	.	4r	.	.	.	.	8enL	.
8ccn)	.	.	.	.	.	.	.	.	.	.	8fnJ	.
.	.	12ff#X	.	.	.	.	.	.	.	.	.	.
=9	=9	=9	=9	=9	=9	=9	=9	=9	=9	=9	=9	=9
2r	2r	8r	8r	2r	4r	2r	2r	2r	4r	2r	12enL	.
.	.	.	.	.	.	.	.	.	.	.	12dd#XJ	.
.	.	[4.gggn	4ggggn~	.	.	.	.	.	.	.	.	.
.	.	.	.	.	.	.	.	.	.	.	12r	]
.	.	.	.	.	16r	.	.	.	16r	.	4r	.
.	.	.	.	.	16fn'^LL	.	.	.	8an	.	.	.
.	.	.	8r	.	16f'JJ	.	.	.	.	.	.	.
.	.	.	.	.	16r	.	.	.	16r	.	.	.
*clefF4	*	*	*	*	*	*	*	*	*	*	*	*
=10	=10	=10	=10	=10	=10	=10	=10	=10	=10	=10	=10	=10
4.GG#X 4.C#X	2r	4ggg]	2r	6r	2r	4.g#X^	2r	2r	2r	2r	2r	.
.	.	.	.	12r	.	.	.	.	.	.	.	.
.	.	4r	.	12DnL	.	.	.	.	.	.	.	.
.	.	.	.	12en	.	.	.	.	.	.	.	.
8r	.	.	.	.	.	8r	.	.	.	.	.	.
.	.	.	.	12B-XJ	.	.	.	.	.	.	.	.
=11	=11	=11	=11	=11	=11	=11	=11	=11	=11	=11	=11	=11
2r	2r	2r	2r	8B-XL	2r	2r	2r	2r	2r	2r	2r	.
.	.	.	.	8AnJ	.	.	.	.	.	.	.	.
.	.	.	.	8BnL	.	.	.	.	.	.	.	.
.	.	.	.	8E-XJ	.	.	.	.	.	.	.	.
=12	=12	=12	=12	=12	=12	=12	=12	=12	=12	=12	=12	=12
2r	2r	2r	2r	2r	2r	4r	2r	2r	16r	2r	16r	.
.	.	.	.	.	.	.	.	.	16fn'LL	.	16fn'LL	.
.	.	.	.	.	.	.	.	.	16f'JJ	.	16f'JJ	.
.	.	.	.	.	.	.	.	.	16r	.	16r	.
.	.	.	.	.	.	16r	.	.	4r	.	4r	.
.	.	.	.	.	.	16fn'	.	.	.	.	.	.
.	.	.	.	.	.	8r	.	.	.	.	.	.
==	==	==	==	==	==	==	==	==	==	==	==	==
*-	*-	*-	*-	*-	*-	*-	*-	*-	*-	*-	*-	*-
!!!CDT: 1883/12/03-1945/09/15
!!!CBL: Vienna, Austria
!!!CDL: Mittersill, Austria
!!!CNT: Austrian
!!!AGN: Orchestral; Symphonic
!!!MCN: Webern, Anton
!!!MDT: 1924/06/22
!!!MGN: unknown
!!!MLC: Zürich, Switzerland
!!!MPD: 1924
!!!MPN:
!!!ODT: 1913
!!!PDT: 1923
!!!example: 408
!!!work: Web-13
!!!excerpt-end-measure: 12
!!!excerpt-end-time: 0:58
!!!excerpt-start-measure: 1
!!!excerpt-start-time: 0:00
!!!system-decoration: [(s1,s2)][(s3,s4)]{(s5,s6)}{(s7,s8)}[(s9)][(s10,s11,s12)]
!!!ONB: Converted from MusicXML on 2019/06/04 and edited by Craig Stuart Sapp
!!!EEV: 2019/10/08
